images/icon-redirect-manager.svg

<svg width="42" height="42" viewBox="0 0 42 42" fill="none" xmlns="http://www.w3.org/2000/svg">
	<g clip-path="url(#clip0_765_871)">
		<path d="M42.4201 -0.419922H-0.419922V42.4201H42.4201V-0.419922Z" />
		<path d="M29.3455 22.1214C29.1775 21.9702 28.9423 21.9282 28.7323 22.0038C28.5223 22.0794 28.3711 22.2684 28.3417 22.491L28.1569 23.8644C27.5185 23.8518 26.8885 23.7552 26.2837 23.5746C22.6003 22.4658 20.5885 20.706 18.6439 19.0008C16.5817 17.1948 14.4481 15.3216 10.5799 14.4354C9.92891 14.2842 9.30731 14.7 9.16451 15.3258C9.01751 15.96 9.41651 16.5984 10.0549 16.7454C13.3393 17.5014 15.1621 19.0974 17.0899 20.7858C19.1227 22.5666 21.4285 24.591 25.6075 25.8426C26.3341 26.061 27.0817 26.1828 27.8419 26.2248L27.6697 27.4974C27.6403 27.72 27.7327 27.9384 27.9175 28.0686C28.0225 28.1442 28.1443 28.182 28.2703 28.182C28.3627 28.182 28.4551 28.161 28.5433 28.119L32.5375 26.1114C32.7139 26.0232 32.8399 25.851 32.8651 25.6536C32.8903 25.4562 32.8189 25.2588 32.6719 25.1244L29.3539 22.1298L29.3455 22.1214Z" fill="white"/>
		<path d="M10.0843 25.4015C9.52569 25.5317 9.17709 26.0903 9.30309 26.6447C9.41229 27.1193 9.82809 27.4511 10.3153 27.4511C10.3951 27.4511 10.4707 27.4427 10.5505 27.4259C14.3515 26.5523 16.4683 24.7169 18.5011 22.9361C17.9299 22.4825 17.4007 22.0289 16.8925 21.5837C15.0529 23.1881 13.2427 24.6749 10.0885 25.4015H10.0843Z" fill="white"/>
		<path d="M26.2458 18.291C26.859 18.1062 27.4932 18.0096 28.14 17.9928L28.3458 19.509C28.3752 19.7316 28.5264 19.9164 28.7364 19.9962C28.8036 20.0214 28.875 20.034 28.9464 20.034C29.0934 20.034 29.2362 19.9794 29.3496 19.8786L32.6676 16.884C32.8146 16.7496 32.8902 16.5522 32.8608 16.3548C32.8314 16.1574 32.7096 15.9852 32.5332 15.897L28.539 13.8894C28.3374 13.7886 28.098 13.8054 27.9174 13.9356C27.7326 14.0658 27.6402 14.2842 27.6696 14.5068L27.8628 15.9222C27.111 15.96 26.3676 16.0818 25.6494 16.296C23.52 16.9344 21.6804 17.8374 19.9038 19.1142C20.4456 19.5804 21 20.034 21.5964 20.4624C23.0286 19.5048 24.5238 18.8034 26.25 18.2868L26.2458 18.291Z" fill="white"/>
	</g>
	<defs>
		<clipPath id="clip0_765_871">
			<rect width="42" height="42" rx="6" fill="white"/>
		</clipPath>
	</defs>
</svg>

<svg width="42" height="42" fill="none" xmlns="http://www.w3.org/2000/svg" role="img" aria-hidden="true" focusable="false"><g clip-path="url(#clip0_765_871)"><path d="M42.42-.42H-.42v42.84h42.84V-.42z"/><path d="M29.346 22.121a.607.607 0 0 0-1.004.37l-.185 1.373a7.029 7.029 0 0 1-1.873-.29c-3.684-1.108-5.695-2.868-7.64-4.573-2.062-1.806-4.196-3.68-8.064-4.566a1.178 1.178 0 0 0-1.415.89 1.186 1.186 0 0 0 .89 1.42c3.284.756 5.107 2.352 7.035 4.04 2.033 1.782 4.338 3.806 8.518 5.058.726.218 1.474.34 2.234.382l-.172 1.272a.598.598 0 0 0 .247.572.599.599 0 0 0 .353.113.633.633 0 0 0 .273-.063l3.995-2.008a.601.601 0 0 0 .134-.987l-3.318-2.994-.008-.009zm-19.262 3.28c-.558.13-.907.69-.78 1.244.108.474.524.806 1.011.806.08 0 .156-.008.236-.025 3.8-.874 5.917-2.71 7.95-4.49a43.6 43.6 0 0 1-1.609-1.352c-1.84 1.604-3.65 3.09-6.803 3.817h-.005z" fill="#fff"/><path d="M26.246 18.291a7.192 7.192 0 0 1 1.894-.298l.206 1.516a.608.608 0 0 0 .6.525c.147 0 .29-.055.404-.155l3.318-2.995a.6.6 0 0 0 .193-.53.611.611 0 0 0-.328-.457l-3.994-2.008a.602.602 0 0 0-.87.618l.194 1.415a9.39 9.39 0 0 0-2.214.374 18.875 18.875 0 0 0-5.745 2.818c.542.466 1.096.92 1.692 1.348a16.883 16.883 0 0 1 4.654-2.175l-.004.004z" fill="#fff"/></g><defs><clipPath id="clip0_765_871"><rect width="42" height="42" rx="6" fill="#fff"/></clipPath></defs></svg>
